X:205
T:Valse Westphalia
S:repertoire de Andy Dejarlis
L:1/4
M:3/4
K:Dmaj
A, | D2E | F2B | A3- | A2A, | D2E | F2G | E3- | E2D | C2E | G2d | c3- | c2 (3B/c/B/ | Ac (3B/c/B/ | AGE |1 F3- | F2 :|2 D3- | D3 |:
d3 | c3 | Bc>d | F3 | F E>D | FED | G3- | G3 | B3- | B3 | Bcd | c2 (3B/c/B/ | Ac (3B/c/B/ | AGE |1 F3- | F3 :|2 D3- | D3 |]
